X:234
T:The Sailor's Grace (a)
M:C|
L:1/4
Q:1/4=100
K:F
C|\
FC FC|FC FC|GC GC|GC GC|
FC FC|FC FC|DB AC|DE FF|
BB BB|AA AA|DG GF|ED CC|
FC FC|F2 C2|F3||
